src/assets/icons/filters/categories/laundry_selected.svg

<svg width="39" height="48" viewBox="0 0 39 48" fill="none" xmlns="http://www.w3.org/2000/svg">
<path fill-rule="evenodd" clip-rule="evenodd" d="M34.436 0H4.56158C3.35215 0.0012449 2.19262 0.482237 1.33743 1.33743C0.482237 2.19262 0.0012449 3.35215 0 4.56158V41.9367C0 44.4307 1.49858 46.4591 4.49887 46.492V46.4999C4.49887 47.3275 5.16979 48 5.99902 48H8.99931C9.39691 47.9996 9.77807 47.8414 10.0591 47.5601C10.3401 47.2788 10.4979 46.8974 10.4979 46.4999H28.4981C28.4981 47.3275 29.1706 48 29.9982 48H32.9985C33.3964 48 33.778 47.842 34.0593 47.5606C34.3406 47.2793 34.4987 46.8977 34.4987 46.4999L34.4971 46.492C35.6954 46.476 36.8392 45.9892 37.6815 45.1369C38.5239 44.2845 38.9972 43.1351 38.9991 41.9367V4.56158C38.9979 3.35188 38.5167 2.19211 37.6611 1.33688C36.8056 0.481639 35.6457 0.000829908 34.436 0Z" fill="#CFD8DC"/>
<path fill-rule="evenodd" clip-rule="evenodd" d="M35.9989 41.9367C35.9989 42.7989 35.2982 43.4996 34.436 43.4996H4.56163C4.14726 43.4992 3.74999 43.3344 3.45699 43.0414C3.16398 42.7484 2.99919 42.3511 2.99878 41.9367V4.56159C2.99878 3.69943 3.69947 3.00031 4.56163 3.00031H34.436C35.2982 3.00031 35.9989 3.701 35.9989 4.56159V41.9367V41.9367ZM19.4988 37.499C22.2824 37.4957 24.9511 36.3884 26.9194 34.4201C28.8877 32.4518 29.995 29.7831 29.9983 26.9995C29.9954 24.2156 28.8883 21.5466 26.92 19.5779C24.9516 17.6093 22.2827 16.5018 19.4988 16.4985C16.7147 16.5014 14.0454 17.6087 12.0767 19.5774C10.108 21.5461 9.00071 24.2154 8.9978 26.9995C9.00112 29.7834 10.1086 32.4523 12.0772 34.4207C14.0459 36.389 16.7149 37.4961 19.4988 37.499V37.499Z" fill="#13C1AC" fill-opacity="0.7"/>
<path fill-rule="evenodd" clip-rule="evenodd" d="M19.4988 37.499C16.7149 37.4961 14.0459 36.389 12.0772 34.4207C10.1086 32.4523 9.00112 29.7834 8.9978 26.9996C9.00071 24.2154 10.108 21.5461 12.0767 19.5774C14.0454 17.6087 16.7147 16.5014 19.4988 16.4985C22.2827 16.5019 24.9516 17.6093 26.92 19.578C28.8883 21.5466 29.9954 24.2157 29.9983 26.9996C29.995 29.7832 28.8877 32.4518 26.9194 34.4201C24.9511 36.3884 22.2824 37.4957 19.4988 37.499" fill="white" fill-opacity="0.5"/>
<path fill-rule="evenodd" clip-rule="evenodd" d="M19.4987 37.5006C16.7146 37.4973 14.0454 36.3896 12.077 34.4206C10.1086 32.4516 9.00176 29.7822 8.99927 26.998C9.00259 24.2144 10.1098 21.5457 12.0782 19.5774C14.0465 17.6091 16.7151 16.5019 19.4987 16.4985C22.2826 16.5019 24.9515 17.6093 26.9199 19.578C28.8882 21.5466 29.9953 24.2157 29.9982 26.9996C29.9949 29.7832 28.8876 32.4518 26.9193 34.4201C24.951 36.3884 22.2823 37.4957 19.4987 37.499" fill="white" fill-opacity="0.5"/>
<path fill-rule="evenodd" clip-rule="evenodd" d="M35.9988 41.9367C35.9988 42.7989 35.2981 43.4996 34.436 43.4996H4.56158C4.14721 43.4991 3.74993 43.3344 3.45693 43.0414C3.16393 42.7484 2.99914 42.3511 2.99873 41.9367V4.56158C2.99873 3.69942 3.69942 3.00029 4.56158 3.00029H34.436C35.2981 3.00029 35.9988 3.70099 35.9988 4.56158V41.9367V41.9367ZM34.436 0C35.6454 0.0012449 36.8049 0.482237 37.6601 1.33743C38.5153 2.19262 38.9963 3.35215 38.9976 4.56158V41.9367C38.9956 43.1345 38.5228 44.2835 37.6811 45.1358C36.8394 45.988 35.6964 46.4751 34.4987 46.492V46.4999C34.4987 46.8977 34.3406 47.2793 34.0593 47.5606C33.778 47.842 33.3964 48 32.9985 48H29.9982C29.6004 48 29.2188 47.842 28.9375 47.5606C28.6561 47.2793 28.4981 46.8977 28.4981 46.4999H10.4995C10.4995 46.8977 10.3414 47.2793 10.0601 47.5606C9.77875 47.842 9.39718 48 8.99931 48H5.99902C5.60116 48 5.21959 47.842 4.93826 47.5606C4.65692 47.2793 4.49887 46.8977 4.49887 46.4999V46.492C1.49858 46.4607 0 44.4307 0 41.9367V4.56158C0.0012449 3.35215 0.482237 2.19262 1.33743 1.33743C2.19262 0.482237 3.35215 0.0012449 4.56158 0H34.436V0ZM30.434 6.4348C30.1644 6.71853 29.9982 7.10885 29.9982 7.49917C29.9982 7.88949 30.1644 8.27981 30.434 8.5651C30.7193 8.83472 31.1081 8.99931 31.5 8.99931C31.8887 8.99931 32.279 8.83472 32.5643 8.56354C32.8339 8.27981 32.9985 7.88949 32.9985 7.49917C32.9985 7.10885 32.8339 6.71853 32.5643 6.43323C32.2741 6.16509 31.8935 6.01617 31.4984 6.01617C31.1033 6.01617 30.7227 6.16509 30.4325 6.43323L30.434 6.4348ZM26.9995 8.99931C27.3883 8.99931 27.7786 8.83472 28.0639 8.56354C28.3335 8.27981 28.4981 7.88949 28.4981 7.49917C28.4981 7.10885 28.3335 6.71853 28.0639 6.43323C27.509 5.87989 26.4885 5.87989 25.9336 6.43323C25.66 6.72132 25.5049 7.1019 25.4994 7.49917C25.4994 7.88949 25.664 8.27981 25.9336 8.5651C26.2189 8.83472 26.6076 8.99931 26.9995 8.99931V8.99931ZM22.4991 8.99931C22.8894 8.99931 23.2781 8.83472 23.565 8.56354C23.8346 8.27981 23.9992 7.88949 23.9992 7.49917C23.9992 7.10885 23.8346 6.71853 23.5634 6.43323C22.9944 5.87989 21.9896 5.87989 21.4331 6.43323C21.1595 6.72132 21.0045 7.1019 20.9989 7.49917C20.9989 7.88949 21.1635 8.27981 21.4331 8.5651C21.7184 8.83472 22.1087 8.99931 22.4991 8.99931V8.99931ZM7.4976 8.99931H14.9983C15.3962 8.99931 15.7778 8.84126 16.0591 8.55993C16.3404 8.2786 16.4985 7.89703 16.4985 7.49917C16.4985 7.1013 16.3404 6.71974 16.0591 6.4384C15.7778 6.15707 15.3962 5.99902 14.9983 5.99902H7.49917C7.1013 5.99902 6.71974 6.15707 6.4384 6.4384C6.15707 6.71974 5.99902 7.1013 5.99902 7.49917C5.99902 7.89703 6.15707 8.2786 6.4384 8.55993C6.71974 8.84126 7.1013 8.99931 7.49917 8.99931H7.4976ZM19.4988 13.4982C12.056 13.4982 5.99902 19.5568 5.99902 26.9995C5.99902 34.4422 12.056 40.4993 19.4988 40.4993C26.9415 40.4993 32.9985 34.4422 32.9985 26.9995C32.9985 19.5568 26.9415 13.4998 19.4988 13.4998V13.4982Z" fill="#0F9989"/>
<path fill-rule="evenodd" clip-rule="evenodd" d="M19.4987 37.5006C16.7146 37.4973 14.0454 36.3896 12.077 34.4206C10.1086 32.4516 9.00176 29.7822 8.99927 26.998C9.00259 24.2144 10.1098 21.5457 12.0782 19.5774C14.0465 17.6091 16.7151 16.5019 19.4987 16.4985C22.2826 16.5019 24.9515 17.6093 26.9199 19.578C28.8882 21.5466 29.9953 24.2157 29.9982 26.9996C29.9949 29.7832 28.8876 32.4518 26.9193 34.4201C24.951 36.3884 22.2823 37.4957 19.4987 37.499" fill="#13C1AC"/>
<path fill-rule="evenodd" clip-rule="evenodd" d="M19.4987 37.5006C16.7146 37.4973 14.0454 36.3896 12.077 34.4206C10.1086 32.4516 9.00176 29.7822 8.99927 26.998C9.00259 24.2144 10.1098 21.5457 12.0782 19.5774C14.0465 17.6091 16.7151 16.5019 19.4987 16.4985C22.2826 16.5019 24.9515 17.6093 26.9199 19.578C28.8882 21.5466 29.9953 24.2157 29.9982 26.9996C29.9949 29.7832 28.8876 32.4518 26.9193 34.4201C24.951 36.3884 22.2823 37.4957 19.4987 37.499" fill="white" fill-opacity="0.5"/>
<path fill-rule="evenodd" clip-rule="evenodd" d="M19.4989 19.4988C17.5105 19.5013 15.6043 20.2924 14.1984 21.6986C12.7925 23.1048 12.0018 25.0112 11.9998 26.9996C12.0123 27.3888 12.1758 27.7579 12.4556 28.0289C12.7354 28.2998 13.1096 28.4512 13.4991 28.4512C13.8886 28.4512 14.2628 28.2998 14.5426 28.0289C14.8224 27.7579 14.9859 27.3888 14.9985 26.9996C15.0001 25.8066 15.4749 24.6631 16.3186 23.8197C17.1622 22.9763 18.306 22.5019 19.4989 22.5007C19.897 22.5007 20.2788 22.3426 20.5602 22.0611C20.8417 21.7796 20.9999 21.3978 20.9999 20.9998C20.9999 20.6017 20.8417 20.2199 20.5602 19.9385C20.2788 19.657 19.897 19.4988 19.4989 19.4988Z" fill="#0F9989"/>
</svg>

<svg width="39" height="48" viewBox="0 0 39 48" fill="none" xmlns="http://www.w3.org/2000/svg"><path fill-rule="evenodd" clip-rule="evenodd" d="M34.436 0H4.562A4.566 4.566 0 000 4.562v37.375c0 2.494 1.499 4.522 4.499 4.555v.008c0 .828.67 1.5 1.5 1.5h3a1.5 1.5 0 001.499-1.5h18c0 .828.673 1.5 1.5 1.5h3a1.5 1.5 0 001.5-1.5v-.008a4.563 4.563 0 004.501-4.555V4.562A4.566 4.566 0 0034.436 0z" fill="#CFD8DC"/><path fill-rule="evenodd" clip-rule="evenodd" d="M35.999 41.937c0 .862-.7 1.563-1.563 1.563H4.562a1.564 1.564 0 01-1.563-1.563V4.562c0-.863.7-1.562 1.563-1.562h29.874c.862 0 1.563.701 1.563 1.562v37.375zm-16.5-4.438a10.512 10.512 0 0010.5-10.5 10.512 10.512 0 00-10.5-10.5 10.512 10.512 0 00-10.501 10.5 10.512 10.512 0 0010.5 10.5z" fill="#13C1AC" fill-opacity=".7"/><path fill-rule="evenodd" clip-rule="evenodd" d="M19.499 37.499a10.512 10.512 0 01-10.501-10.5 10.512 10.512 0 0110.5-10.5 10.512 10.512 0 0110.5 10.5 10.512 10.512 0 01-10.5 10.5" fill="#fff" fill-opacity=".5"/><path fill-rule="evenodd" clip-rule="evenodd" d="M19.499 37.5a10.512 10.512 0 01-10.5-10.502 10.512 10.512 0 0110.5-10.5A10.512 10.512 0 0129.999 27a10.512 10.512 0 01-10.5 10.499" fill="#fff" fill-opacity=".5"/><path fill-rule="evenodd" clip-rule="evenodd" d="M35.999 41.937c0 .862-.7 1.563-1.563 1.563H4.562a1.565 1.565 0 01-1.563-1.563V4.562c0-.863.7-1.562 1.563-1.562h29.874c.862 0 1.563.701 1.563 1.562v37.375zM34.436 0a4.566 4.566 0 014.562 4.562v37.375a4.564 4.564 0 01-4.5 4.555v.008a1.5 1.5 0 01-1.5 1.5h-3a1.5 1.5 0 01-1.5-1.5H10.5A1.5 1.5 0 019 48H6a1.5 1.5 0 01-1.5-1.5v-.008C1.499 46.461 0 44.431 0 41.937V4.562A4.566 4.566 0 014.562 0h29.874zm-4.002 6.435c-.27.284-.436.674-.436 1.064s.166.78.436 1.066c.285.27.674.434 1.066.434.389 0 .779-.164 1.064-.435.27-.284.434-.675.434-1.065 0-.39-.164-.78-.434-1.066a1.57 1.57 0 00-2.131 0l.001.002zM27 8.999c.388 0 .779-.164 1.064-.435.27-.284.434-.675.434-1.065 0-.39-.165-.78-.434-1.066-.555-.553-1.576-.553-2.13 0a1.58 1.58 0 00-.435 1.066c0 .39.165.78.435 1.066.285.27.674.434 1.066.434zm-4.5 0c.39 0 .778-.164 1.065-.435.27-.284.434-.675.434-1.065 0-.39-.164-.78-.436-1.066-.569-.553-1.573-.553-2.13 0A1.58 1.58 0 0021 7.5c0 .39.165.78.434 1.066.285.27.676.434 1.066.434zM7.497 9h7.5a1.5 1.5 0 100-3H7.5a1.5 1.5 0 000 3h-.001zm12 4.5C12.057 13.498 6 19.556 6 26.998c0 7.443 6.057 13.5 13.5 13.5s13.5-6.057 13.5-13.5c0-7.442-6.058-13.5-13.5-13.5z" fill="#0F9989"/><path fill-rule="evenodd" clip-rule="evenodd" d="M19.499 37.5a10.512 10.512 0 01-10.5-10.502 10.512 10.512 0 0110.5-10.5A10.512 10.512 0 0129.999 27a10.512 10.512 0 01-10.5 10.499" fill="#13C1AC"/><path fill-rule="evenodd" clip-rule="evenodd" d="M19.499 37.5a10.512 10.512 0 01-10.5-10.502 10.512 10.512 0 0110.5-10.5A10.512 10.512 0 0129.999 27a10.512 10.512 0 01-10.5 10.499" fill="#fff" fill-opacity=".5"/><path fill-rule="evenodd" clip-rule="evenodd" d="M19.499 19.499a7.509 7.509 0 00-7.5 7.5 1.5 1.5 0 003 0 4.505 4.505 0 014.5-4.498 1.5 1.5 0 100-3.002z" fill="#0F9989"/></svg>
